X:1
T:How Blest Were They on Bethlehem’s Plain
T:How Blest Were They on Bethlehem’s Plain
T:Arranged by Herbert Stephen Irons
T:Mrs. Bodley, 19th Century
T:Public Domain Courtesy of the Cyber Hymnal™
T:Public Domain Courtesy of the Cyber Hymnal™
C:Arranged by Herbert Stephen Irons
Z:Public Domain
Z:Courtesy of the Cyber Hymnal™
%%score ( 1 2 ) ( 3 4 )
L:1/8
M:4/4
K:Bb
V:1 treble 
V:2 treble 
V:3 bass 
V:4 bass 
V:1
 [FB]4 [FA]3 [EA] | [DB]6 [Ge]2 | (d2 B2) (G2 A2) | [DB]6 [Fd]2 | c6 (z2 B2) | [FA]4 [=EG]4 x2 | %6
w: 1.~How blest were|they on|Beth- * lehem’s *|plain, Be-|neath *|* the|
w: 2.~“Fear not, for|on this|ho- * ly *|morn Good|news *|* to|
w: 3.~Then sud- den-|ly a|heaven- * ly *|band Join|in *|* the|
w: 4.~And thus the|joy- ful|cho- * rus *|ran— “Glo-|ry *|* to|
w: 5.~Glad tid- ings!|nor on|Beth- * lehem’s *|plain A-|lone *|* that|
w: 6.~And still to|mil- lions|yet * un- *|born Shall|sound *|* from|
 F6 F2 | [DB]2 [DB]2 [CA]2 [DB]2 | [Ec]2 [CA]2 [DB]2 [Fc]2 | [Fd]2 [Fd]2 [Fc]2 [Fd]2 | %10
w: mid- night|sky, Who heard the|an- gel’s joy- ful|strain, Who heard the|
w: all I|bring; In Beth- lehem’s|low- ly shrine is|born, In Beth- lehem’s|
w: an- gel’s|song, While rock and|hill through Ju- dah’s|land While rock and|
w: God be|given!, For peace on|earth, good- will to|man, For peace on|
w: song was|sweet; Lo! mil- lions|hail with joy the|strain, Lo! mil- lions|
w: shore to|shore The song, which|waked that ho- ly|morn, The song, which|
 [Fe]2 [Fc]2 [Fd]2 [Ge]2 | [Ff]6 (ed) | e6 [Fc]2 | [Fd]4 [Ge]4 | (d2 c2) ([FB]2 [EA]2) | [DB]8 |] %16
w: an- gel’s joy- ful|strain, And *|felt that|Heaven was|nigh, * That *|Heaven|
w: low- ly shrine is|born, Je- *|sus, the|in- fant|King, * The *|in-|
w: hill through Ju- dah’s|land The *|notes of|praise pro-|long, * Of *|praise|
w: earth, good- will to|man, De- *|scend to|him from|Heaven, * To *|him|
w: hail with joy the|strain, And *|seek the|Sav- ior’s|feet, * The *|Sav-|
w: waked that ho- ly|morn, Till *|time shall|be no|more! * Shall *|be|
V:2
 x8 | x8 | F4 E4 | x8 | (F2 A2) G4 x2 | x10 | F6 (FE) | x8 | x8 | x8 | x8 | x6 G2 | (G2 E2 F2) x2 | %13
 x8 | F4 x4 | x8 |] %16
V:3
 [B,,D]4 [F,C]3 [F,C] | [G,B,]6 [E,B,]2 | (B,2 D2) [F,C]4 | [B,,B,]6 B,2 | [A,C]4 [B,D]4 x2 | %5
 C6 (z2 B,2) | [F,A,]6 z2 | z8 | z6 F,2 | B,2 B,2 A,2 B,2 | C2 A,2 B,2 [E,B,]2 | B,6 [E,B,]2 | %12
 (B,2 A,G,) [F,A,]4 | B,4 [E,B,]4 | (B,2 E2) (D2 C2) | [B,,B,]8 |] %16
V:4
 x8 | x8 | F,4 x4 | x6 B,2 | x10 | C4 C,4 x2 | x8 | x8 | x8 | x8 | x8 | (D,2 C,2 D,2) x2 | C,4 x4 | %13
 B,4 x4 | F,4 F,4 | x8 |] %16

